X:18487
T:Waltz. CJF.226
M:3/4
L:1/8
Q:120
S: C.J.Fox MS, 1829/33, Beverley,E.Yorks.
R:Waltz
O:England
A:East Yorkshire
B:Kidson Coll.Mitchell Lib.M1805
Z:P J Headford 2000
K:D
D2|">"d4A2|FGA2A2|FGA2B2|A2G2e2|">"e4G2|EFG2G2|\
EFG2A2|G2F2:||:!"ff"A|
Adcdfd|cBgfed|ceagfe|dfedcB|!Adcdfd|cBgfed|ceagfe|\
d4:||!z2|"p"
B>=cd2d2|B>cd2d2|=c2{d}cBcd|=c2B2d2|!B>=cd2d2|\
B>=cd2d2|=c2{d}cBcA|G6||


